app/assets/images/remix_icon/business/service-line.svg

<svg viewBox="0 0 24 24" xmlns="http://www.w3.org/2000/svg"><path d="M3.16113 4.46924C5.58508 2.04529 9.44716 1.93599 12.0008 4.14133C14.5528 1.93599 18.4149 2.04529 20.8388 4.46924C23.2584 6.88884 23.3716 10.7414 21.1785 13.2952L13.4142 21.0862C12.6686 21.8318 11.4809 21.8657 10.6952 21.1879L10.5858 21.0862L2.82141 13.2952C0.628282 10.7414 0.741522 6.88884 3.16113 4.46924ZM4.57534 5.88345C2.86819 7.5906 2.81942 10.3281 4.42902 12.0942L4.57534 12.2474L12 19.672L17.3026 14.368L13.7677 10.8332L12.7071 11.8939C11.5355 13.0654 9.636 13.0654 8.46443 11.8939C7.29286 10.7223 7.29286 8.82279 8.46443 7.65122L10.5656 5.54872C8.85292 4.17762 6.37076 4.24042 4.7286 5.73712L4.57534 5.88345ZM13.0606 8.71188C13.4511 8.32135 14.0843 8.32135 14.4748 8.71188L18.7168 12.9538L19.4246 12.2474C21.1819 10.4901 21.1819 7.64081 19.4246 5.88345C17.7174 4.1763 14.9799 4.12752 13.2139 5.73712L13.0606 5.88345L9.87864 9.06543C9.51601 9.42806 9.49011 9.99991 9.80094 10.3924L9.87864 10.4796C10.2413 10.8423 10.8131 10.8682 11.2056 10.5573L11.2929 10.4796L13.0606 8.71188Z"/></svg>

<svg xmlns="http://www.w3.org/2000/svg" viewBox="0 0 24 24">
    <g>
        <path fill="none" d="M0 0h24v24H0z"/>
        <path d="M3.161 4.469a6.5 6.5 0 0 1 8.84-.328 6.5 6.5 0 0 1 9.178 9.154l-7.765 7.79a2 2 0 0 1-2.719.102l-.11-.101-7.764-7.791a6.5 6.5 0 0 1 .34-8.826zm1.414 1.414a4.5 4.5 0 0 0-.146 6.21l.146.154L12 19.672l5.303-5.304-3.535-3.535-1.06 1.06a3 3 0 1 1-4.244-4.242l2.102-2.103a4.501 4.501 0 0 0-5.837.189l-.154.146zm8.486 2.828a1 1 0 0 1 1.414 0l4.242 4.242.708-.706a4.5 4.5 0 0 0-6.211-6.51l-.153.146-3.182 3.182a1 1 0 0 0-.078 1.327l.078.087a1 1 0 0 0 1.327.078l.087-.078 1.768-1.768z"/>
    </g>
</svg>
